X: 20261
T: PRINCESS AGUSTA'S WALTZ
C:
%R: waltz
B: Elias Howe "The Musician's Companion" 1843 p.26 #1
S: http://imslp.org/wiki/The_Musician's_Companion_(Howe,_Elias)
Z: 2015 John Chambers <jc:trillian.mit.edu>
M: 3/8
L: 1/16
K: G
% - - - - - - - - - - - - - - - - - - - - - - - - -
Bc |\
(de)(de)d2 | (g2G2)B2 | (de)(de)d2 | (g2G2)B2 |\
(GABc^cd) | =c4A2 | B4G2 | F2d2 (Bc) |\
(de)(de)d2 | (g2G2B2) | (de)(de)d2 |(g2G2B2) |
(c4e2) | (A4a2) | g(fedef) | g4 ::\
Bc |\
(ed^cded) | B4G2 | c2(A2F2) | (GFGAG2) |\
ed^cded | d4[a2e2] | (gfedef) | g4 :|
% - - - - - - - - - - - - - - - - - - - - - - - - -

%%sep 1 1 500

